X:1
T:The Loss of the Cedar Grove
M:3/4
L:1/4
K:A
 E/2| A3/2 z/2 B| A2 F| E3| C z E| A2 A| B/2- A3/2 G| A/2 z/2 z2| z2 c|\
 e2 e| e2 d| c3| c/2 z/2 z B| A/2 A/2- A2| G/2 A/2- A2| B2 z| z2 c|\
 e3/2 e3/2| e3/2 d z/2| c3/2 c3/2| c3/2 z c/2| d2 F| G2 A| E2 z| A3|\
 E2 F| E3/2 D3/2| C3/2- E3/2| A z B| c2 d| B/2 G/2- G2| A2 z| z2 z/2||\
